icon-svg/wps-wifi.svg

<svg xmlns="http://www.w3.org/2000/svg" viewBox="0 0 24 24"><path fill="#44739e" d="M12.8 17.365a1.4 1.4 0 0 0-.275.023v.988a1 1 0 0 0 .223.016c.4 0 .629-.2.629-.533s-.225-.494-.577-.494M16.5 2h-9A5.5 5.5 0 0 0 2 7.5v9A5.5 5.5 0 0 0 7.5 22h9a5.5 5.5 0 0 0 5.5-5.5v-9A5.5 5.5 0 0 0 16.5 2m-5.78 17.973h-.676l-.284-1.288a9 9 0 0 1-.168-.969h-.006c-.056.344-.116.649-.2.969l-.323 1.288h-.67l-.728-3.039h.676l.259 1.312c.069.364.134.739.181 1.063h.013c.048-.34.129-.692.216-1.071l.3-1.3h.629l.28 1.32c.073.356.138.692.181 1.047h.013c.051-.359.116-.7.185-1.067l.271-1.3h.642Zm-.663-6.408a1.947 1.947 0 1 1 1.947 1.947 1.95 1.95 0 0 1-1.944-1.947Zm2.7 5.286a1.3 1.3 0 0 1-.232-.016v1.138h-.635v-3a5 5 0 0 1 .857-.063 1.5 1.5 0 0 1 .944.241.85.85 0 0 1 .318.68c0 .834-.758 1.02-1.253 1.02ZM9.712 11.27l-.918-.918a4.55 4.55 0 0 1 6.425 0l-.918.918a3.25 3.25 0 0 0-4.589 0m5.43 8.743a1.9 1.9 0 0 1-.814-.17l.125-.49a1.6 1.6 0 0 0 .715.17c.353 0 .538-.155.538-.38s-.159-.348-.525-.494c-.5-.2-.81-.482-.81-.877 0-.5.427-.882 1.142-.882a1.7 1.7 0 0 1 .71.139l-.133.478a1.4 1.4 0 0 0-.59-.131c-.336 0-.487.166-.487.336 0 .218.164.317.569.487.529.217.766.5.766.9 0 .526-.435.914-1.206.914m1-10.578a5.84 5.84 0 0 0-8.26 0l-.918-.918a7.14 7.14 0 0 1 10.095 0Zm1.83-1.835a8.436 8.436 0 0 0-11.931 0l-.918-.918a9.735 9.735 0 0 1 13.767 0Z"/></svg>

<?xml version="1.0" encoding="UTF-8"?>
<svg width="24px" fill="#44739e" height="24px" viewBox="0 0 24 24" version="1.1" xmlns="http://www.w3.org/2000/svg" xmlns:xlink="http://www.w3.org/1999/xlink">
            <path d="m 12.8,17.365 a 1.357,1.357 0 0 0 -0.275,0.023 v 0.988 a 1.145,1.145 0 0 0 0.223,0.016 c 0.4,0 0.629,-0.2 0.629,-0.533 0,-0.333 -0.225,-0.494 -0.577,-0.494 z M 16.5,2 h -9 A 5.5,5.5 0 0 0 2,7.5 v 9 A 5.5,5.5 0 0 0 7.5,22 h 9 A 5.5,5.5 0 0 0 22,16.5 v -9 A 5.5,5.5 0 0 0 16.5,2 Z M 10.72,19.973 H 10.044 L 9.76,18.685 A 9.174,9.174 0 0 1 9.592,17.716 H 9.586 C 9.53,18.06 9.47,18.365 9.386,18.685 L 9.063,19.973 H 8.393 L 7.665,16.934 H 8.341 L 8.6,18.246 c 0.069,0.364 0.134,0.739 0.181,1.063 h 0.013 c 0.048,-0.34 0.129,-0.692 0.216,-1.071 l 0.3,-1.3 h 0.629 l 0.28,1.32 c 0.073,0.356 0.138,0.692 0.181,1.047 h 0.013 c 0.051,-0.359 0.116,-0.7 0.185,-1.067 l 0.271,-1.3 h 0.642 z m -0.663,-6.408 a 1.947,1.947 0 1 1 1.947,1.947 1.949,1.949 0 0 1 -1.944,-1.947 z m 2.7,5.286 a 1.3,1.3 0 0 1 -0.232,-0.016 v 1.138 H 11.89 v -3 a 5.2,5.2 0 0 1 0.857,-0.063 1.511,1.511 0 0 1 0.944,0.241 0.849,0.849 0 0 1 0.318,0.68 c 0,0.834 -0.758,1.02 -1.253,1.02 z M 9.712,11.27 8.794,10.352 a 4.549,4.549 0 0 1 6.425,0 l -0.918,0.918 a 3.249,3.249 0 0 0 -4.589,0 z m 5.43,8.743 a 1.9,1.9 0 0 1 -0.814,-0.17 l 0.125,-0.49 a 1.587,1.587 0 0 0 0.715,0.17 c 0.353,0 0.538,-0.155 0.538,-0.38 0,-0.225 -0.159,-0.348 -0.525,-0.494 -0.5,-0.2 -0.81,-0.482 -0.81,-0.877 0,-0.5 0.427,-0.882 1.142,-0.882 a 1.706,1.706 0 0 1 0.71,0.139 L 16.09,17.507 A 1.37,1.37 0 0 0 15.5,17.376 c -0.336,0 -0.487,0.166 -0.487,0.336 0,0.218 0.164,0.317 0.569,0.487 0.529,0.217 0.766,0.5 0.766,0.9 0,0.526 -0.435,0.914 -1.206,0.914 z m 1,-10.578 a 5.84,5.84 0 0 0 -8.26,0 L 6.964,8.517 a 7.138,7.138 0 0 1 10.095,0 z M 17.972,7.6 A 8.436,8.436 0 0 0 6.041,7.6 L 5.123,6.682 a 9.735,9.735 0 0 1 13.767,0 z"/>

</svg>
